html/dist/img/svg/address.svg

<svg width="22" height="29" viewBox="0 0 22 29" fill="none" xmlns="http://www.w3.org/2000/svg">
<path d="M21 10.6489C21 5.31995 16.5228 1 11 1C5.47715 1 1 5.31995 1 10.6489V11.2301C1 13.3622 1.69046 15.4411 2.97486 17.1762L10.9802 27.9902C10.9899 28.0033 11.0101 28.0033 11.0198 27.9902L19.0251 17.1762C20.3095 15.4411 21 13.3622 21 11.2301V10.6489Z" stroke="#FF4978" stroke-width="2" stroke-linecap="round" stroke-linejoin="round"/>
<path d="M9.04542 6.79019C10.2806 6.21625 11.7194 6.21625 12.9546 6.79019C14.1897 7.36413 15.0868 8.44955 15.3919 9.73918C15.697 11.0288 15.3768 12.3823 14.522 13.4165C13.6673 14.4507 12.3709 15.0531 11 15.0531C9.62907 15.0531 8.33273 14.4507 7.47797 13.4165C6.62321 12.3823 6.30304 11.0288 6.6081 9.73918C6.91316 8.44955 7.81025 7.36413 9.04542 6.79019Z" stroke="#FF4978" stroke-width="2" stroke-linecap="round" stroke-linejoin="round"/>
</svg>

<svg width="22" height="29" viewBox="0 0 22 29" fill="none" xmlns="http://www.w3.org/2000/svg"><path d="M21 10.649C21 5.32 16.523 1 11 1S1 5.32 1 10.649v.581c0 2.132.69 4.211 1.975 5.946L10.98 27.99c.01.013.03.013.04 0l8.005-10.814A9.988 9.988 0 0021 11.23v-.581z" stroke="#FF4978" stroke-width="2" stroke-linecap="round" stroke-linejoin="round"/><path d="M9.045 6.79a4.653 4.653 0 013.91 0c1.235.574 2.132 1.66 2.437 2.95a4.23 4.23 0 01-.87 3.676A4.568 4.568 0 0111 15.053a4.568 4.568 0 01-3.522-1.637 4.23 4.23 0 01-.87-3.677C6.913 8.45 7.81 7.364 9.045 6.79z" stroke="#FF4978" stroke-width="2" stroke-linecap="round" stroke-linejoin="round"/></svg>
